src/assets/icons/media.svg

<svg width="34" height="24" viewBox="0 0 34 24" fill="none" xmlns="http://www.w3.org/2000/svg">
<rect x="0.5" y="0.5" width="33" height="23" rx="2.5" fill="#F6ECFC" stroke="#E0C1F4"/>
<path fill-rule="evenodd" clip-rule="evenodd" d="M23 8.7585C23 7.65393 22.1046 6.7583 21 6.7583H17H13C11.8954 6.7583 11 7.66068 11 8.76525C11 13.4045 11 10.0833 11 10.0833L11 14.8333C11 15.5675 11.3957 16.2093 11.9854 16.5571L15.6458 12.8168L18.9552 16.1985L20.426 14.6955L22.1573 16.4646C22.6673 16.1021 23 15.5066 23 14.8333V9.77705V8.7585ZM19.5 9C18.66 9 18 9.66 18 10.5C18 11.34 18.66 12 19.5 12C20.34 12 21 11.34 21 10.5C21 9.66 20.34 9 19.5 9Z" fill="#8724CB"/>
</svg>

<svg width="34" height="24" fill="none" xmlns="http://www.w3.org/2000/svg"><rect x=".5" y=".5" width="33" height="23" rx="2.5" fill="#F6ECFC" stroke="#E0C1F4"/><path fill-rule="evenodd" clip-rule="evenodd" d="M23 8.758a2 2 0 00-2-2h-8c-1.105 0-2 .903-2 2.007v6.068c0 .735.396 1.376.985 1.724l3.66-3.74 3.31 3.381 1.471-1.503 1.731 1.77c.51-.363.843-.958.843-1.632V8.76zM19.5 9c-.84 0-1.5.66-1.5 1.5s.66 1.5 1.5 1.5 1.5-.66 1.5-1.5S20.34 9 19.5 9z" fill="#8724CB"/></svg>
